icons/svg/laptop-windows.svg

﻿<?xml version="1.0" encoding="utf-8"?>
<!DOCTYPE svg PUBLIC "-//W3C//DTD SVG 1.1//EN" "http://www.w3.org/Graphics/SVG/1.1/DTD/svg11.dtd">
<svg xmlns="http://www.w3.org/2000/svg" xmlns:xlink="http://www.w3.org/1999/xlink" version="1.1" baseProfile="full" width="24" height="24" viewBox="0 0 24.00 24.00" enable-background="new 0 0 24.00 24.00" xml:space="preserve">
	<path fill="#000000" fill-opacity="1" stroke-width="0.2" stroke-linejoin="round" d="M 3,4L 21,4C 21.5523,4 22,4.44772 22,5L 22,16C 22,16.5523 21.5523,17 21,17L 22,17L 24,20L 24,21L 0,21L 0,20L 2,17L 3,17C 2.44772,17 2,16.5523 2,16L 2,5C 2,4.44772 2.44772,4 3,4 Z M 4,6L 4,15L 20,15L 20,6L 4,6 Z "/>
</svg>

<svg xmlns="http://www.w3.org/2000/svg" version="1.1" baseProfile="full" width="24" height="24" viewBox="0 0 24.00 24.00" xml:space="preserve"><path fill="#000" fill-opacity="1" stroke-width=".2" stroke-linejoin="round" d="M3 4h18c.552 0 1 .448 1 1v11c0 .552-.448 1-1 1h1l2 3v1H0v-1l2-3h1c-.552 0-1-.448-1-1V5c0-.552.448-1 1-1zm1 2v9h16V6H4z"/></svg>
